X: 28443
T: Mullingar Races, The
R: reel
M: 4/4
K: Dmajor
D2|GABG ABcA|defd dcBA|BcBG ABAG|FGAB cAFD|
GABG ABcA|defd dcBA|B3d cAGF|DGGF G2:|
(3def|g2eg f2ed|gage f2 ed|defg abag|f2 d2 dedc|
B3G AFD2|BdBG ABcA|defd cAGF|DGGF G2:|

